X: 1827
T: Richmond Park
C:Alexander Laing (1792-1868)
B: australian traditional tunes wiki
M:6/8
L:1/8
R: Jig
Q: 3/8=100
K:D
V:1 
A|"D"d2Af2d|a3afd|"A7"c2Ae2c|g3-gec|"D" d2Af2d|a3 "A7"bge|"D"d2d "A7"cBc|"D"d2dd2:|
|:A|"A7"c2Ae2c|g3-gec|"D"d2Af2d|a3-afd|"G"b2ag2e|"D"a2gf2e|g2ef2d |"A7"cde ABc|
"D"d2Af2d|a3afd|"A7"c2Ae2c|g3-gec|"D"d2Af2d|a2a "A7"bge|"D"d2d "A7"cBc|"D"d3d2:|
% abcbook-tune_id 6342d53adfdfaafbea8f19db


% abcbook-boost 0
% abcbook-tablature 
% abcbook-transpose 
% abcbook-lastupdated 1665324386419
% abcbook-soundfonts 
% abcbook-repeats 1
% NFF Book 2019
% Bush Traditions recording played by Ray Mulligan

